apps/www/public/images/launchweek/8/twitter-spaces-thumb.svg

<svg width="132" height="76" viewBox="0 0 132 76" fill="none" xmlns="http://www.w3.org/2000/svg">
<g clip-path="url(#clip0_2932_199515)">
<path d="M135.707 -30.9727H-2.25391V106.988H135.707V-30.9727Z" fill="#020405" stroke="white"/>
<path d="M53.5312 31.597C52.8096 31.925 52.0318 32.1405 51.2258 32.2436C52.0505 31.7469 52.6878 30.9597 52.9877 30.0132C52.2099 30.4818 51.3477 30.8098 50.4386 30.9972C49.6983 30.1912 48.658 29.7227 47.4772 29.7227C45.2748 29.7227 43.4755 31.522 43.4755 33.7431C43.4755 34.0617 43.513 34.371 43.5786 34.6615C40.2423 34.4928 37.2715 32.8903 35.294 30.463C34.9473 31.0534 34.7505 31.7469 34.7505 32.4779C34.7505 33.8743 35.4534 35.1113 36.5405 35.8142C35.8751 35.8142 35.2566 35.6268 34.713 35.3456C34.713 35.3456 34.713 35.3456 34.713 35.3738C34.713 37.3231 36.1 38.9537 37.9368 39.3192C37.5995 39.4129 37.2433 39.4598 36.8778 39.4598C36.6248 39.4598 36.3718 39.4317 36.1281 39.3848C36.6342 40.9686 38.1055 42.1495 39.8768 42.1776C38.5085 43.2647 36.7748 43.9019 34.8817 43.9019C34.5631 43.9019 34.2444 43.8832 33.9258 43.8457C35.7064 44.9891 37.8244 45.6544 40.0923 45.6544C47.4772 45.6544 51.5351 39.5254 51.5351 34.2117C51.5351 34.0336 51.5351 33.8649 51.5257 33.6869C52.3129 33.1246 52.9877 32.4123 53.5312 31.597Z" fill="#9296AA"/>
<line x1="72.6041" y1="23.8327" x2="61.7657" y2="51.7278" stroke="#9296AA" stroke-opacity="0.3" stroke-width="0.5"/>
<path d="M90.9633 36.3271L97.5885 28.7852H96.0188L90.2635 35.3323L85.6702 28.7852H80.3711L87.3187 38.6865L80.3711 46.5946H81.9408L88.0148 39.679L92.8666 46.5946H98.1657L90.9633 36.3271ZM88.8126 38.7734L88.1076 37.7868L82.5069 29.9441H84.9184L89.4396 36.2758L90.1417 37.2624L96.018 45.4922H93.6066L88.8126 38.7734Z" fill="#9296AA"/>
</g>
<defs>
<clipPath id="clip0_2932_199515">
<rect width="131.914" height="75.3795" fill="white" transform="translate(0.0859375)"/>
</clipPath>
</defs>
</svg>

<svg xmlns="http://www.w3.org/2000/svg" width="132" height="76" fill="none" viewBox="0 0 132 76"><g clip-path="url(#a)"><path fill="#020405" stroke="#fff" d="M135.707-30.973H-2.253v137.961h137.96z"/><path fill="#9296aa" d="M53.531 31.597a8 8 0 0 1-2.305.647 4.03 4.03 0 0 0 1.762-2.23 8.1 8.1 0 0 1-2.55.983c-.74-.806-1.78-1.274-2.96-1.274-2.203 0-4.003 1.799-4.003 4.02 0 .319.038.628.104.918a11.43 11.43 0 0 1-8.285-4.198 4 4 0 0 0-.543 2.015c0 1.396.702 2.633 1.79 3.336a4 4 0 0 1-1.828-.468v.028c0 1.95 1.387 3.58 3.224 3.945a3.96 3.96 0 0 1-1.809.066 4.01 4.01 0 0 0 3.749 2.793 8 8 0 0 1-4.995 1.724q-.479 0-.956-.056a11.4 11.4 0 0 0 6.166 1.808c7.385 0 11.443-6.129 11.443-11.442 0-.178 0-.347-.01-.525a8 8 0 0 0 2.006-2.09"/><path stroke="#9296aa" stroke-opacity=".3" stroke-width=".5" d="M72.604 23.833 61.766 51.728"/><path fill="#9296aa" d="m90.963 36.327 6.626-7.542h-1.57l-5.756 6.547-4.593-6.547h-5.299l6.948 9.902-6.948 7.908h1.57l6.074-6.916 4.852 6.916h5.299zm-2.15 2.446-.705-.986-5.601-7.843h2.411l4.522 6.332.702.986 5.876 8.23h-2.411z"/></g><defs><clipPath id="a"><path fill="#fff" d="M.086 0H132v75.379H.086z"/></clipPath></defs></svg>
